src/core/static/images/map/pin.svg

<svg width="21" height="30" viewBox="0 0 21 30" fill="none" xmlns="http://www.w3.org/2000/svg">
<path d="M10.4684 22.8069C10.3317 23.2533 10.2073 23.7029 10.0952 24.1554L9.00424 23.0265L9.72181 22.8083C9.72172 22.808 9.72163 22.8077 9.72153 22.8074C9.3931 21.7273 8.99273 20.6704 8.52311 19.6438L8.52314 19.6438L8.52012 19.6373C6.71678 15.7918 4.06111 12.4096 0.75664 9.74648C0.845231 7.39639 1.81713 5.16074 3.48557 3.49094C5.23813 1.73695 7.61568 0.751009 10.0952 0.750001C12.5747 0.748993 14.953 1.73301 16.707 3.48557C18.3767 5.15392 19.3504 7.38863 19.441 9.73851C16.1367 12.4016 13.4811 15.7837 11.6778 19.6291L11.6778 19.6291L11.6754 19.6344C11.2025 20.6637 10.7992 21.7236 10.4684 22.8069Z" fill="#AF996B" stroke="#2E2E2E" stroke-width="1.5" stroke-miterlimit="10"/>
</svg>

<svg width="21" height="30" fill="none" xmlns="http://www.w3.org/2000/svg"><path d="M10.468 22.807c-.136.446-.26.896-.373 1.348l-1.09-1.129.717-.218a25.295 25.295 0 0 0-1.199-3.164l-.003-.007a27.937 27.937 0 0 0-7.763-9.89 9.349 9.349 0 0 1 18.684-.008 27.938 27.938 0 0 0-7.763 9.89l-.003.005a25.293 25.293 0 0 0-1.207 3.173Z" fill="#AF996B" stroke="#2E2E2E" stroke-width="1.5" stroke-miterlimit="10"/></svg>
